u/stations/jre/img/050.svg

<?xml version="1.0" encoding="UTF-8" standalone="no"?>
<svg
   width="70"
   height="30"
   version="1.1"
   xml:space="preserve"
   id="svg10"
   sodipodi:docname="050.svg"
   inkscape:version="1.4 (e7c3feb1, 2024-10-09)"
   xmlns:inkscape="http://www.inkscape.org/namespaces/inkscape"
   xmlns:sodipodi="http://sodipodi.sourceforge.net/DTD/sodipodi-0.dtd"
   xmlns:xlink="http://www.w3.org/1999/xlink"
   xmlns="http://www.w3.org/2000/svg"
   xmlns:svg="http://www.w3.org/2000/svg"><sodipodi:namedview
     id="namedview10"
     pagecolor="#ffffff"
     bordercolor="#000000"
     borderopacity="0.25"
     inkscape:showpageshadow="2"
     inkscape:pageopacity="0.0"
     inkscape:pagecheckerboard="0"
     inkscape:deskcolor="#d1d1d1"
     inkscape:zoom="1.908732"
     inkscape:cx="13.0977"
     inkscape:cy="2.095632"
     inkscape:window-width="1392"
     inkscape:window-height="411"
     inkscape:window-x="0"
     inkscape:window-y="25"
     inkscape:window-maximized="0"
     inkscape:current-layer="svg10" /><defs
     id="defs9"><linearGradient
       id="linearGradient11"
       inkscape:collect="always"><stop
         style="stop-color:#de0615;stop-opacity:1;"
         offset="0"
         id="stop11" /><stop
         style="stop-color:#ff9844;stop-opacity:1;"
         offset="1"
         id="stop12" /></linearGradient><clipPath
       id="b"><path
         d="m1 0.625h14v18.8h-14z"
         id="path1" /></clipPath><clipPath
       id="c"><path
         d="m16 0.625h18v18.8h-18z"
         id="path2" /></clipPath><clipPath
       id="a"><path
         d="M0 0h35v20H0z"
         id="path3" /></clipPath><clipPath
       id="e"><path
         d="m3 0.762h17v26.9h-17z"
         id="path4" /></clipPath><clipPath
       id="f"><path
         d="m23 0.762h17v26.9h-17z"
         id="path5" /></clipPath><clipPath
       id="d"><path
         d="M0 0h43v28H0z"
         id="path6" /></clipPath><g
       id="h"
       clip-path="url(#a)" /><g
       id="i"
       clip-path="url(#d)" /><linearGradient
       id="linearGradient3"
       x1="35.9"
       x2="64.1"
       y1="-1.64"
       y2="26.6"
       gradientUnits="userSpaceOnUse"
       gradientTransform="translate(23.77529,-31.94804)"><stop
         stop-color="#de0615"
         offset="0"
         id="stop6" /><stop
         stop-color="#ff9844"
         offset="1"
         id="stop7" /></linearGradient><linearGradient
       id="linearGradient6"
       x1="35"
       x2="35"
       y1="0"
       y2="30"
       gradientUnits="userSpaceOnUse"><stop
         stop-color="#de0615"
         offset="0"
         id="stop8" /><stop
         stop-color="#ff9844"
         offset="1"
         id="stop9" /></linearGradient><clipPath
       id="b-2"><path
         d="M1 .625h14v18.75H1Zm0 0"
         id="path1-1" /></clipPath><clipPath
       id="c-0"><path
         d="M16 .625h18v18.75H16Zm0 0"
         id="path2-9" /></clipPath><clipPath
       id="a-3"><path
         d="M0 0h35v20H0z"
         id="path3-7" /></clipPath><clipPath
       id="e-4"><path
         d="M3 .762h17v26.875H3Zm0 0"
         id="path4-9" /></clipPath><clipPath
       id="f-1"><path
         d="M23 .762h17v26.875H23Zm0 0"
         id="path5-9" /></clipPath><clipPath
       id="d-0"><path
         d="M0 0h43v28H0z"
         id="path6-1" /></clipPath><g
       id="h-6"
       clip-path="url(#a-3)"><g
         clip-path="url(#b-2)"
         id="g7"><path
           d="M14.738 18.797a17 17 0 0 1-4.004.578c-5.687 0-9.656-2.926-9.656-9.047 0-6.2 3.668-9.664 9.656-9.664a11.6 11.6 0 0 1 3.965.73l-.261 3.044a7.17 7.17 0 0 0-3.817-.961c-3.629 0-5.914 2.847-5.914 6.543 0 3.695 2.207 6.468 5.988 6.468 1.387 0 3.032-.308 3.856-.77Zm0 0"
           id="path7" /></g><g
         clip-path="url(#c-0)"
         id="g8"><path
           d="M25.316.625c5.54 0 8.606 3.852 8.606 9.316 0 5.47-3.067 9.399-8.606 9.399-5.652 0-8.609-3.852-8.609-9.399 0-5.543 2.996-9.316 8.61-9.316m0 15.863c3.593 0 4.94-3.312 4.94-6.547 0-3.23-1.425-6.464-4.94-6.464-3.52 0-4.942 3.27-4.942 6.464 0 3.274 1.348 6.547 4.941 6.547"
           id="path8" /></g></g><g
       id="i-9"
       clip-path="url(#d-0)"><g
         clip-path="url(#e-4)"
         id="g9"><path
           d="M3.45 22.348c1.784.71 3.722 1.195 5.769 1.195 2.16 0 5.469-1.047 5.469-3.684 0-3.054-2.418-4.062-5.731-4.062H6.426v-4.09h2.383c3.5 0 5.773-1.16 5.773-3.43 0-2.605-2.125-3.422-4.473-3.422-2.043 0-4.015.485-5.84 1.375l-.296-4.167C6.05 1.243 8.547.762 11.23.762c3.204 0 8.56 1.113 8.56 6.66 0 3.535-2.196 5.21-4.837 6.223v.07c3.313.445 4.95 3.012 4.95 6.176 0 6.18-5.622 7.746-9.938 7.746-2.274 0-4.88-.297-6.817-.856z"
           id="path9-9" /></g><g
         clip-path="url(#f-1)"
         id="g10"><path
           d="M23.395 22.348c1.789.71 3.726 1.195 5.773 1.195 2.16 0 5.473-1.047 5.473-3.684 0-3.054-2.422-4.062-5.73-4.062h-2.532v-4.09h2.379c3.5 0 5.773-1.16 5.773-3.43 0-2.605-2.125-3.422-4.468-3.422-2.047 0-4.02.485-5.844 1.375l-.301-4.167C26.004 1.243 28.5.762 31.176.762c3.203 0 8.562 1.113 8.562 6.66 0 3.535-2.195 5.21-4.84 6.223v.07c3.317.445 4.954 3.012 4.954 6.176 0 6.18-5.618 7.746-9.938 7.746-2.27 0-4.875-.297-6.816-.856z"
           id="path10-5" /></g></g><clipPath
       id="b-0"><path
         d="m1 0.625h14v18.8h-14z"
         id="path1-9" /></clipPath><clipPath
       id="c-5"><path
         d="m16 0.625h18v18.8h-18z"
         id="path2-7" /></clipPath><clipPath
       id="a-9"><path
         d="M0 0h35v20H0z"
         id="path3-3" /></clipPath><clipPath
       id="e-3"><path
         d="m3 0.762h17v26.9h-17z"
         id="path4-3" /></clipPath><clipPath
       id="f-2"><path
         d="m23 0.762h17v26.9h-17z"
         id="path5-4" /></clipPath><clipPath
       id="d-3"><path
         d="M0 0h43v28H0z"
         id="path6-3" /></clipPath><clipPath
       id="g"><path
         d="M0 0h75v75H0z"
         id="path7-5" /></clipPath><g
       id="h-1"
       clip-path="url(#a-9)" /><g
       id="i-0"
       clip-path="url(#d-3)" /><linearGradient
       inkscape:collect="always"
       xlink:href="#linearGradient11"
       id="linearGradient12"
       x1="40.08563"
       y1="-2.359348"
       x2="64.83437"
       y2="22.38939"
       gradientUnits="userSpaceOnUse"
       gradientTransform="translate(0.04,-0.015)" /></defs><path
     d="M 30,0 H 40 V 30 H 30 Z"
     fill="url(#linearGradient6)"
     stroke-width="1.41"
     style="fill:url(#linearGradient6);paint-order:fill markers stroke"
     id="path9" /><path
     fill="#de0615"
     d="M 30,0 H 35 V 30 H 30 Z"
     style="fill:#ff9844;fill-opacity:1;stroke-width:0.999997;paint-order:fill markers stroke"
     id="path2-5" /><path
     d="M 50.04,25 C 50.04,25 45.25,25.069 40.3,22.6 35.35,20.131 30,14.17 30,5 V 0 H 40 V 5 C 40,10.83 42.18,12.37 44.74,13.65 47.3,14.93 50,15 50,15 H 70 V 25 Z"
     fill="url(#linearGradient3)"
     style="fill:#ff9844;paint-order:fill markers stroke;fill-opacity:1"
     id="path11" /><path
     d="M 40,-0.015 V 5.015 C 40,10.435 42.34,12.455 44.87001,13.715 47.40001,14.975 50.00001,15.015 50.00001,15.015 H 70 V 20.015 H 50.00001 C 50.00001,20.015 46.35001,20.05 42.63,18.185 38.91,16.325 35,12.095 35,4.985 V -0.015 Z"
     fill="#00a7e3"
     style="fill:url(#linearGradient12);paint-order:fill markers stroke"
     id="path8-9"
     sodipodi:nodetypes="csscccccscc" /></svg>

<svg xmlns="http://www.w3.org/2000/svg" xmlns:xlink="http://www.w3.org/1999/xlink" xml:space="preserve" width="70" height="30"><defs><linearGradient id="l"><stop offset="0" style="stop-color:#de0615;stop-opacity:1"/><stop offset="1" style="stop-color:#ff9844;stop-opacity:1"/></linearGradient><linearGradient id="n" x1="35.9" x2="64.1" y1="-1.64" y2="26.6" gradientTransform="translate(23.775 -31.948)" gradientUnits="userSpaceOnUse"><stop offset="0" stop-color="#de0615"/><stop offset="1" stop-color="#ff9844"/></linearGradient><linearGradient id="m" x1="35" x2="35" y1="0" y2="30" gradientUnits="userSpaceOnUse"><stop offset="0" stop-color="#de0615"/><stop offset="1" stop-color="#ff9844"/></linearGradient><linearGradient xlink:href="#l" id="o" x1="40.086" x2="64.834" y1="-2.359" y2="22.389" gradientTransform="translate(.04 -.015)" gradientUnits="userSpaceOnUse"/></defs><path fill="url(#m)" d="M30 0h10v30H30Z" style="fill:url(#m);paint-order:fill markers stroke"/><path fill="#de0615" d="M30 0h5v30h-5Z" style="fill:#ff9844;fill-opacity:1;stroke-width:.999997;paint-order:fill markers stroke"/><path fill="url(#n)" d="M50.04 25s-4.79.069-9.74-2.4S30 14.17 30 5V0h10v5c0 5.83 2.18 7.37 4.74 8.65S50 15 50 15h20v10Z" style="fill:#ff9844;paint-order:fill markers stroke;fill-opacity:1"/><path fill="#00a7e3" d="M40-.015v5.03c0 5.42 2.34 7.44 4.87 8.7s5.13 1.3 5.13 1.3h20v5H50s-3.65.035-7.37-1.83c-3.72-1.86-7.63-6.09-7.63-13.2v-5Z" style="fill:url(#o);paint-order:fill markers stroke"/></svg>
